assets/dashboard-icon.svg

<svg width="67" height="60.00000000000001" xmlns="http://www.w3.org/2000/svg">

 <g>
  <title>background</title>
  <rect fill="none" id="canvas_background" height="402" width="582" y="-1" x="-1"/>
 </g>
 <g>
  <title>Layer 1</title>
  <path id="svg_1" fill="#007fff" d="m14.326,2l-10.27166,0c-1.12989,0 -2.05434,0.91085 -2.05434,2.02411l0,10.12059c0,1.1132 0.92445,2.0241 2.05434,2.0241l10.27166,0c1.1299,0 2.0544,-0.9109 2.0544,-2.0241l0,-10.12059c0,-1.11326 -0.9245,-2.02411 -2.0544,-2.02411zm-2.0543,10.1205l-6.16303,0l0,-6.07228l6.16303,0l0,6.07228zm-8.21736,10.7951l10.27166,0c1.1299,0 2.0544,0.9107 2.0544,2.024l0,10.1205c0,1.1133 -0.9245,2.0241 -2.0544,2.0241l-10.27166,0c-1.12989,0 -2.05434,-0.9108 -2.05434,-2.0241l0,-10.1205c0,-1.1133 0.92445,-2.024 2.05434,-2.024zm2.05433,10.1204l6.16303,0l0,-6.0723l-6.16303,0l0,6.0723zm-2.05433,10.7952l10.27166,0c1.1299,0 2.0544,0.9109 2.0544,2.0242l0,10.1205c0,1.1133 -0.9245,2.0241 -2.0544,2.0241l-10.27166,0c-1.12989,0 -2.05434,-0.9108 -2.05434,-2.0241l0,-10.1205c0,-1.1133 0.92445,-2.0242 2.05434,-2.0242zm2.05433,10.1206l6.16303,0l0,-6.0723l-6.16303,0l0,6.0723zm19.17403,-42.8433l37.663,0c1.1298,0 2.0543,-0.9109 2.0543,-2.02412c0,-1.11326 -0.9245,-2.02411 -2.0543,-2.02411l-37.663,0c-1.1299,0 -2.0543,0.91085 -2.0543,2.02411c0,1.11322 0.9244,2.02412 2.0543,2.02412zm0,16.8672l37.663,0c1.1298,0 2.0543,0.9109 2.0543,2.0241c0,1.1133 -0.9245,2.0241 -2.0543,2.0241l-37.663,0c-1.1299,0 -2.0543,-0.9108 -2.0543,-2.0241c0,-1.1132 0.9244,-2.0241 2.0543,-2.0241zm0,20.9158l37.663,0c1.1298,0 2.0543,0.9109 2.0543,2.0241c0,1.1133 -0.9245,2.0241 -2.0543,2.0241l-37.663,0c-1.1299,0 -2.0543,-0.9108 -2.0543,-2.0241c0,-1.1132 0.9244,-2.0241 2.0543,-2.0241z" clip-rule="evenodd" fill-rule="evenodd"/>
  <path id="svg_2" fill="none" d="m12.2717,12.1205l0,1.25l1.25,0l0,-1.25l-1.25,0zm-6.16303,0l-1.25,0l0,1.25l1.25,0l0,-1.25zm0,-6.07228l0,-1.25l-1.25,0l0,1.25l1.25,0zm6.16303,0l1.25,0l0,-1.25l-1.25,0l0,1.25zm-6.16303,26.98778l-1.25,0l0,1.25l1.25,0l0,-1.25zm6.16303,0l0,1.25l1.25,0l0,-1.25l-1.25,0zm0,-6.0723l1.25,0l0,-1.25l-1.25,0l0,1.25zm-6.16303,0l0,-1.25l-1.25,0l0,1.25l1.25,0zm0,26.9881l-1.25,0l0,1.25l1.25,0l0,-1.25zm6.16303,0l0,1.25l1.25,0l0,-1.25l-1.25,0zm0,-6.0723l1.25,0l0,-1.25l-1.25,0l0,1.25zm-6.16303,0l0,-1.25l-1.25,0l0,1.25l1.25,0zm8.21733,-47.1295l-10.27166,0l0,2.5l10.27166,0l0,-2.5zm-10.27166,0c-1.80271,0 -3.30434,1.45309 -3.30434,3.27411l2.5,0c0,-0.4055 0.34727,-0.77411 0.80434,-0.77411l0,-2.5zm-3.30434,3.27411l0,10.12059l2.5,0l0,-10.12059l-2.5,0zm0,10.12059c0,1.821 1.50163,3.2741 3.30434,3.2741l0,-2.5c-0.45707,0 -0.80434,-0.3686 -0.80434,-0.7741l-2.5,0zm3.30434,3.2741l10.27166,0l0,-2.5l-10.27166,0l0,2.5zm10.27166,0c1.8027,0 3.3044,-1.4531 3.3044,-3.2741l-2.5,0c0,0.4055 -0.3473,0.7741 -0.8044,0.7741l0,2.5zm3.3044,-3.2741l0,-10.12059l-2.5,0l0,10.12059l2.5,0zm0,-10.12059c0,-1.82102 -1.5017,-3.27411 -3.3044,-3.27411l0,2.5c0.4571,0 0.8044,0.36861 0.8044,0.77411l2.5,0zm-5.3587,6.84639l-6.16303,0l0,2.5l6.16303,0l0,-2.5zm-4.91303,1.25l0,-6.07228l-2.5,0l0,6.07228l2.5,0zm-1.25,-4.82228l6.16303,0l0,-2.5l-6.16303,0l0,2.5zm4.91303,-1.25l0,6.07228l2.5,0l0,-6.07228l-2.5,0zm-6.96736,18.11738l10.27166,0l0,-2.5l-10.27166,0l0,2.5zm10.27166,0c0.4572,0 0.8044,0.3686 0.8044,0.774l2.5,0c0,-1.8212 -1.5018,-3.274 -3.3044,-3.274l0,2.5zm0.8044,0.774l0,10.1205l2.5,0l0,-10.1205l-2.5,0zm0,10.1205c0,0.4055 -0.3473,0.7741 -0.8044,0.7741l0,2.5c1.8027,0 3.3044,-1.4531 3.3044,-3.2741l-2.5,0zm-0.8044,0.7741l-10.27166,0l0,2.5l10.27166,0l0,-2.5zm-10.27166,0c-0.45707,0 -0.80434,-0.3686 -0.80434,-0.7741l-2.5,0c0,1.821 1.50163,3.2741 3.30434,3.2741l0,-2.5zm-0.80434,-0.7741l0,-10.1205l-2.5,0l0,10.1205l2.5,0zm0,-10.1205c0,-0.4054 0.34714,-0.774 0.80434,-0.774l0,-2.5c-1.80257,0 -3.30434,1.4528 -3.30434,3.274l2.5,0zm2.85867,9.3464l6.16303,0l0,-2.5l-6.16303,0l0,2.5zm7.41303,-1.25l0,-6.0723l-2.5,0l0,6.0723l2.5,0zm-1.25,-7.3223l-6.16303,0l0,2.5l6.16303,0l0,-2.5zm-7.41303,1.25l0,6.0723l2.5,0l0,-6.0723l-2.5,0zm-0.80433,18.1175l10.27166,0l0,-2.5l-10.27166,0l0,2.5zm10.27166,0c0.4571,0 0.8044,0.3687 0.8044,0.7742l2.5,0c0,-1.8211 -1.5017,-3.2742 -3.3044,-3.2742l0,2.5zm0.8044,0.7742l0,10.1205l2.5,0l0,-10.1205l-2.5,0zm0,10.1205c0,0.4055 -0.3473,0.7741 -0.8044,0.7741l0,2.5c1.8027,0 3.3044,-1.4531 3.3044,-3.2741l-2.5,0zm-0.8044,0.7741l-10.27166,0l0,2.5l10.27166,0l0,-2.5zm-10.27166,0c-0.45707,0 -0.80434,-0.3686 -0.80434,-0.7741l-2.5,0c0,1.821 1.50163,3.2741 3.30434,3.2741l0,-2.5zm-0.80434,-0.7741l0,-10.1205l-2.5,0l0,10.1205l2.5,0zm0,-10.1205c0,-0.4055 0.34727,-0.7742 0.80434,-0.7742l0,-2.5c-1.80271,0 -3.30434,1.4531 -3.30434,3.2742l2.5,0zm2.85867,9.3464l6.16303,0l0,-2.5l-6.16303,0l0,2.5zm7.41303,-1.25l0,-6.0723l-2.5,0l0,6.0723l2.5,0zm-1.25,-7.3223l-6.16303,0l0,2.5l6.16303,0l0,-2.5zm-7.41303,1.25l0,6.0723l2.5,0l0,-6.0723l-2.5,0zm20.42403,-35.521l37.663,0l0,-2.50001l-37.663,0l0,2.50001zm37.663,0c1.8027,0 3.3043,-1.4531 3.3043,-3.27412l-2.5,0c0,0.4055 -0.3473,0.77411 -0.8043,0.77411l0,2.50001zm3.3043,-3.27412c0,-1.82102 -1.5016,-3.27411 -3.3043,-3.27411l0,2.5c0.457,0 0.8043,0.36861 0.8043,0.77411l2.5,0zm-3.3043,-3.27411l-37.663,0l0,2.5l37.663,0l0,-2.5zm-37.663,0c-1.8027,0 -3.3043,1.45309 -3.3043,3.27411l2.5,0c0,-0.4055 0.3473,-0.77411 0.8043,-0.77411l0,-2.5zm-3.3043,3.27411c0,1.82102 1.5016,3.27412 3.3043,3.27412l0,-2.50001c-0.457,0 -0.8043,-0.36861 -0.8043,-0.77411l-2.5,0zm3.3043,20.14132l37.663,0l0,-2.5l-37.663,0l0,2.5zm37.663,0c0.457,0 0.8043,0.3686 0.8043,0.7741l2.5,0c0,-1.821 -1.5016,-3.2741 -3.3043,-3.2741l0,2.5zm0.8043,0.7741c0,0.4055 -0.3473,0.7741 -0.8043,0.7741l0,2.5c1.8027,0 3.3043,-1.453 3.3043,-3.2741l-2.5,0zm-0.8043,0.7741l-37.663,0l0,2.5l37.663,0l0,-2.5zm-37.663,0c-0.457,0 -0.8043,-0.3686 -0.8043,-0.7741l-2.5,0c0,1.8211 1.5016,3.2741 3.3043,3.2741l0,-2.5zm-0.8043,-0.7741c0,-0.4055 0.3473,-0.7741 0.8043,-0.7741l0,-2.5c-1.8027,0 -3.3043,1.4531 -3.3043,3.2741l2.5,0zm0.8043,20.1417l37.663,0l0,-2.5l-37.663,0l0,2.5zm37.663,0c0.457,0 0.8043,0.3686 0.8043,0.7741l2.5,0c0,-1.821 -1.5016,-3.2741 -3.3043,-3.2741l0,2.5zm0.8043,0.7741c0,0.4055 -0.3473,0.7741 -0.8043,0.7741l0,2.5c1.8027,0 3.3043,-1.4531 3.3043,-3.2741l-2.5,0zm-0.8043,0.7741l-37.663,0l0,2.5l37.663,0l0,-2.5zm-37.663,0c-0.457,0 -0.8043,-0.3686 -0.8043,-0.7741l-2.5,0c0,1.821 1.5016,3.2741 3.3043,3.2741l0,-2.5zm-0.8043,-0.7741c0,-0.4055 0.3473,-0.7741 0.8043,-0.7741l0,-2.5c-1.8027,0 -3.3043,1.4531 -3.3043,3.2741l2.5,0z"/>
 </g>
</svg>

<svg width="67" height="60" viewBox="0 0 67 60" fill="none" xmlns="http://www.w3.org/2000/svg">
<path fill-rule="evenodd" clip-rule="evenodd" d="M14.326 2H4.05434C2.92445 2 2 2.91085 2 4.02411V14.1447C2 15.2579 2.92445 16.1688 4.05434 16.1688H14.326C15.4559 16.1688 16.3804 15.2579 16.3804 14.1447V4.02411C16.3804 2.91085 15.4559 2 14.326 2ZM12.2717 12.1205H6.10867V6.04822H12.2717V12.1205ZM4.05434 22.9156H14.326C15.4559 22.9156 16.3804 23.8263 16.3804 24.9396V35.0601C16.3804 36.1734 15.4559 37.0842 14.326 37.0842H4.05434C2.92445 37.0842 2 36.1734 2 35.0601V24.9396C2 23.8263 2.92445 22.9156 4.05434 22.9156ZM6.10867 33.036H12.2717V26.9637H6.10867V33.036ZM4.05434 43.8312H14.326C15.4559 43.8312 16.3804 44.7421 16.3804 45.8554V55.9759C16.3804 57.0892 15.4559 58 14.326 58H4.05434C2.92445 58 2 57.0892 2 55.9759V45.8554C2 44.7421 2.92445 43.8312 4.05434 43.8312ZM6.10867 53.9518H12.2717V47.8795H6.10867V53.9518ZM25.2827 11.1085H62.9457C64.0755 11.1085 65 10.1976 65 9.08438C65 7.97112 64.0755 7.06027 62.9457 7.06027H25.2827C24.1528 7.06027 23.2284 7.97112 23.2284 9.08438C23.2284 10.1976 24.1528 11.1085 25.2827 11.1085ZM25.2827 27.9757H62.9457C64.0755 27.9757 65 28.8866 65 29.9998C65 31.1131 64.0755 32.0239 62.9457 32.0239H25.2827C24.1528 32.0239 23.2284 31.1131 23.2284 29.9998C23.2284 28.8866 24.1528 27.9757 25.2827 27.9757ZM25.2827 48.8915H62.9457C64.0755 48.8915 65 49.8024 65 50.9156C65 52.0289 64.0755 52.9397 62.9457 52.9397H25.2827C24.1528 52.9397 23.2284 52.0289 23.2284 50.9156C23.2284 49.8024 24.1528 48.8915 25.2827 48.8915Z" fill="#F8B133"/>
<path d="M12.2717 12.1205V13.3705H13.5217V12.1205H12.2717ZM6.10867 12.1205H4.85867V13.3705H6.10867V12.1205ZM6.10867 6.04822V4.79822H4.85867V6.04822H6.10867ZM12.2717 6.04822H13.5217V4.79822H12.2717V6.04822ZM6.10867 33.036H4.85867V34.286H6.10867V33.036ZM12.2717 33.036V34.286H13.5217V33.036H12.2717ZM12.2717 26.9637H13.5217V25.7137H12.2717V26.9637ZM6.10867 26.9637V25.7137H4.85867V26.9637H6.10867ZM6.10867 53.9518H4.85867V55.2018H6.10867V53.9518ZM12.2717 53.9518V55.2018H13.5217V53.9518H12.2717ZM12.2717 47.8795H13.5217V46.6295H12.2717V47.8795ZM6.10867 47.8795V46.6295H4.85867V47.8795H6.10867ZM14.326 0.75H4.05434V3.25H14.326V0.75ZM4.05434 0.75C2.25163 0.75 0.75 2.20309 0.75 4.02411H3.25C3.25 3.61861 3.59727 3.25 4.05434 3.25V0.75ZM0.75 4.02411V14.1447H3.25V4.02411H0.75ZM0.75 14.1447C0.75 15.9657 2.25163 17.4188 4.05434 17.4188V14.9188C3.59727 14.9188 3.25 14.5502 3.25 14.1447H0.75ZM4.05434 17.4188H14.326V14.9188H4.05434V17.4188ZM14.326 17.4188C16.1287 17.4188 17.6304 15.9657 17.6304 14.1447H15.1304C15.1304 14.5502 14.7831 14.9188 14.326 14.9188V17.4188ZM17.6304 14.1447V4.02411H15.1304V14.1447H17.6304ZM17.6304 4.02411C17.6304 2.20309 16.1287 0.75 14.326 0.75V3.25C14.7831 3.25 15.1304 3.61861 15.1304 4.02411H17.6304ZM12.2717 10.8705H6.10867V13.3705H12.2717V10.8705ZM7.35867 12.1205V6.04822H4.85867V12.1205H7.35867ZM6.10867 7.29822H12.2717V4.79822H6.10867V7.29822ZM11.0217 6.04822V12.1205H13.5217V6.04822H11.0217ZM4.05434 24.1656H14.326V21.6656H4.05434V24.1656ZM14.326 24.1656C14.7832 24.1656 15.1304 24.5342 15.1304 24.9396H17.6304C17.6304 23.1184 16.1286 21.6656 14.326 21.6656V24.1656ZM15.1304 24.9396V35.0601H17.6304V24.9396H15.1304ZM15.1304 35.0601C15.1304 35.4656 14.7831 35.8342 14.326 35.8342V38.3342C16.1287 38.3342 17.6304 36.8811 17.6304 35.0601H15.1304ZM14.326 35.8342H4.05434V38.3342H14.326V35.8342ZM4.05434 35.8342C3.59727 35.8342 3.25 35.4656 3.25 35.0601H0.75C0.75 36.8811 2.25163 38.3342 4.05434 38.3342V35.8342ZM3.25 35.0601V24.9396H0.75V35.0601H3.25ZM3.25 24.9396C3.25 24.5342 3.59714 24.1656 4.05434 24.1656V21.6656C2.25177 21.6656 0.75 23.1184 0.75 24.9396H3.25ZM6.10867 34.286H12.2717V31.786H6.10867V34.286ZM13.5217 33.036V26.9637H11.0217V33.036H13.5217ZM12.2717 25.7137H6.10867V28.2137H12.2717V25.7137ZM4.85867 26.9637V33.036H7.35867V26.9637H4.85867ZM4.05434 45.0812H14.326V42.5812H4.05434V45.0812ZM14.326 45.0812C14.7831 45.0812 15.1304 45.4499 15.1304 45.8554H17.6304C17.6304 44.0343 16.1287 42.5812 14.326 42.5812V45.0812ZM15.1304 45.8554V55.9759H17.6304V45.8554H15.1304ZM15.1304 55.9759C15.1304 56.3814 14.7831 56.75 14.326 56.75V59.25C16.1287 59.25 17.6304 57.7969 17.6304 55.9759H15.1304ZM14.326 56.75H4.05434V59.25H14.326V56.75ZM4.05434 56.75C3.59727 56.75 3.25 56.3814 3.25 55.9759H0.75C0.75 57.7969 2.25163 59.25 4.05434 59.25V56.75ZM3.25 55.9759V45.8554H0.75V55.9759H3.25ZM3.25 45.8554C3.25 45.4499 3.59727 45.0812 4.05434 45.0812V42.5812C2.25163 42.5812 0.75 44.0343 0.75 45.8554H3.25ZM6.10867 55.2018H12.2717V52.7018H6.10867V55.2018ZM13.5217 53.9518V47.8795H11.0217V53.9518H13.5217ZM12.2717 46.6295H6.10867V49.1295H12.2717V46.6295ZM4.85867 47.8795V53.9518H7.35867V47.8795H4.85867ZM25.2827 12.3585H62.9457V9.85849H25.2827V12.3585ZM62.9457 12.3585C64.7484 12.3585 66.25 10.9054 66.25 9.08438H63.75C63.75 9.48988 63.4027 9.85849 62.9457 9.85849V12.3585ZM66.25 9.08438C66.25 7.26336 64.7484 5.81027 62.9457 5.81027V8.31027C63.4027 8.31027 63.75 8.67888 63.75 9.08438H66.25ZM62.9457 5.81027H25.2827V8.31027H62.9457V5.81027ZM25.2827 5.81027C23.48 5.81027 21.9784 7.26336 21.9784 9.08438H24.4784C24.4784 8.67888 24.8257 8.31027 25.2827 8.31027V5.81027ZM21.9784 9.08438C21.9784 10.9054 23.48 12.3585 25.2827 12.3585V9.85849C24.8257 9.85849 24.4784 9.48988 24.4784 9.08438H21.9784ZM25.2827 29.2257H62.9457V26.7257H25.2827V29.2257ZM62.9457 29.2257C63.4027 29.2257 63.75 29.5943 63.75 29.9998H66.25C66.25 28.1788 64.7484 26.7257 62.9457 26.7257V29.2257ZM63.75 29.9998C63.75 30.4053 63.4027 30.7739 62.9457 30.7739V33.2739C64.7484 33.2739 66.25 31.8209 66.25 29.9998H63.75ZM62.9457 30.7739H25.2827V33.2739H62.9457V30.7739ZM25.2827 30.7739C24.8257 30.7739 24.4784 30.4053 24.4784 29.9998H21.9784C21.9784 31.8209 23.48 33.2739 25.2827 33.2739V30.7739ZM24.4784 29.9998C24.4784 29.5943 24.8257 29.2257 25.2827 29.2257V26.7257C23.48 26.7257 21.9784 28.1788 21.9784 29.9998H24.4784ZM25.2827 50.1415H62.9457V47.6415H25.2827V50.1415ZM62.9457 50.1415C63.4027 50.1415 63.75 50.5101 63.75 50.9156H66.25C66.25 49.0946 64.7484 47.6415 62.9457 47.6415V50.1415ZM63.75 50.9156C63.75 51.3211 63.4027 51.6897 62.9457 51.6897V54.1897C64.7484 54.1897 66.25 52.7366 66.25 50.9156H63.75ZM62.9457 51.6897H25.2827V54.1897H62.9457V51.6897ZM25.2827 51.6897C24.8257 51.6897 24.4784 51.3211 24.4784 50.9156H21.9784C21.9784 52.7366 23.48 54.1897 25.2827 54.1897V51.6897ZM24.4784 50.9156C24.4784 50.5101 24.8257 50.1415 25.2827 50.1415V47.6415C23.48 47.6415 21.9784 49.0946 21.9784 50.9156H24.4784Z" fill="#222222"/>
</svg>
